X:14552
T:Roseate Tern
R:reel
C:Paul S. Cranford
O:20th Century Cape Breton
D:The Lighthouse, Cranford Publications
B:The Lighthouse Collection, ISBN 0-9691181-5-5
N:Contacts ...
N:..... Cranford Publications <http://www.cranfordpub.com>
Z:This abc transcription is for personal use only,
Z:provided this notice remains attached.
Z:Used by permission of the composer and publisher.
Z:Paul Stewart Cranford 
L:1/8
Q:300
M:C
K:Eaeo
=46|EB,B,E FDDF|GEEG FGAF|EedB AcBA|BGAG FAGF|!
EG,B,E FEDF|GB,EG AGFD|EedB AcBA|GEFD E3:|!
A|:B2 cB Add2|eBcB AGFD|EBGB AcBA|[1BEGE AGFA|!
B2 cB Add2|eBcB AGFD|EBGB AcBA|GEFD E2 GA:|!
[2BEGE AGFD|EB,FE DEFA|GEBG ABcd|eBB2 AcBA|GEFD E2 E|]!
